src/dsmComponents/Icons/passenger-20px.svg

<?xml version="1.0" encoding="UTF-8"?>
<svg width="17px" height="20px" viewBox="0 0 17 20" version="1.1" xmlns="http://www.w3.org/2000/svg" xmlns:xlink="http://www.w3.org/1999/xlink">
    <!-- Generator: Sketch 59.1 (86144) - https://sketch.com -->
    <title>passenger-20px</title>
    <desc>Created with Sketch.</desc>
    <defs>
        <path d="M12.1166813,18.3456729 C12.565196,18.3456729 12.9297363,18.7160248 12.9297363,19.1725052 C12.9297363,19.629648 12.565196,20 12.1166813,20 L12.1166813,20 L4.6240761,20 C4.17491037,20 3.81102103,19.629648 3.81102103,19.1725052 C3.81102103,18.7160248 4.17491037,18.3456729 4.6240761,18.3456729 L4.6240761,18.3456729 Z M15.4453248,3.21358178 C15.6484258,3.03668737 15.9576341,3.05987578 16.1327437,3.26923395 C16.3085042,3.47792961 16.2837675,3.79130435 16.0780626,3.96952381 L16.0780626,3.96952381 L1.81216843,16.3567702 L15.7616937,16.3567702 C16.0311932,16.3567702 16.25,16.5793789 16.25,16.8536646 C16.25,17.1279503 16.0311932,17.350559 15.7616937,17.350559 L15.7616937,17.350559 L0.488105971,17.350559 C0.283703016,17.350559 0.100781899,17.2207039 0.0298267328,17.0252588 C-0.0404774686,16.8304762 0.0161564714,16.6105176 0.171737065,16.4753623 L0.171737065,16.4753623 L3.71298573,13.4005797 L3.49426155,9.36645963 C3.49426155,9.22004141 3.51248856,9.07627329 3.54243294,8.93581781 C3.56131092,8.84571429 3.59451013,8.76024845 3.62445451,8.67345756 C3.6394267,8.63238095 3.6504931,8.58931677 3.66806915,8.54890269 C3.71624055,8.43561077 3.77678028,8.33026915 3.84382966,8.22691511 C3.84903738,8.21962733 3.85294317,8.21233954 3.85815088,8.20505176 C3.97857938,8.02484472 4.11788585,7.85590062 4.29494828,7.71875776 C5.0793609,7.11055901 6.43987739,6.36057971 8.37649775,6.36057971 C9.49485533,6.36057971 10.4192254,6.61167702 11.1535137,6.94028986 L11.1535137,6.94028986 Z M12.8026029,8.08500207 C12.8390569,8.13402899 12.8787658,8.1804058 12.911965,8.23208282 C12.9243333,8.25063354 12.9367017,8.27050932 12.948419,8.28972257 C13.0017981,8.37850104 13.0506205,8.46794203 13.0903294,8.56400828 C13.1124622,8.61634783 13.1287363,8.67067495 13.1463123,8.72500207 C13.1697471,8.79721739 13.1957857,8.86810766 13.2114088,8.94297308 C13.2407022,9.08011594 13.2582783,9.22057143 13.2582783,9.36367702 L13.2582783,9.36367702 L13.2589293,9.36632712 L12.9217295,15.3595362 L4.49043302,15.3595362 Z M8.37662795,-2.84217094e-14 C9.87449802,-2.84217094e-14 11.0885474,1.18658385 11.0885474,2.65010352 C11.0885474,4.11362319 9.87449802,5.30020704 8.37662795,5.30020704 C6.87810691,5.30020704 5.66405751,4.11362319 5.66405751,2.65010352 C5.66405751,1.18658385 6.87810691,-2.84217094e-14 8.37662795,-2.84217094e-14 Z" id="path-1"></path>
    </defs>
    <g id="Final" stroke="none" stroke-width="1" fill="none" fill-rule="evenodd">
        <g id="All-Nucleo-Icons" transform="translate(-465.000000, -7182.000000)">
            <g id="Solo/Nucleo/20px/passenger" transform="translate(461.000000, 7180.000000)">
                <g transform="translate(4.000000, 2.000000)" id="Colour/Default-Colour">
                    <g>
                        <mask id="mask-2" fill="white">
                            <use xlink:href="#path-1"></use>
                        </mask>
                        <use id="Mask" fill="#737373" xlink:href="#path-1"></use>
                        <g id="colour/neutral/chia" mask="url(#mask-2)" fill="#737373">
                            <g transform="translate(-24.000000, -22.000000)" id="Colour">
                                <rect x="0" y="0" width="64" height="64"></rect>
                            </g>
                        </g>
                    </g>
                </g>
            </g>
        </g>
    </g>
</svg>

<svg width="17" height="20" xmlns="http://www.w3.org/2000/svg" xmlns:xlink="http://www.w3.org/1999/xlink"><defs><path d="M12.117 18.346a.82.82 0 01.813.827.82.82 0 01-.813.827H4.624a.82.82 0 01-.813-.827.82.82 0 01.813-.827zm3.328-15.132a.482.482 0 01.688.055.502.502 0 01-.055.7L1.812 16.358h13.95c.27 0 .488.222.488.497a.493.493 0 01-.488.497H.488a.49.49 0 01-.458-.326.504.504 0 01.142-.55l3.541-3.074-.219-4.035c0-.146.018-.29.048-.43.02-.09.053-.176.082-.263.015-.04.026-.084.044-.124.048-.113.109-.219.176-.322l.014-.022c.12-.18.26-.35.437-.486.784-.61 2.145-1.36 4.081-1.36 1.119 0 2.043.25 2.778.58zm-2.642 4.871c.036.049.076.095.109.147l.036.058c.054.089.103.178.142.274.022.052.039.107.056.161.024.072.05.143.065.218.03.137.047.278.047.42v.003l-.336 5.994H4.49zM8.377 0c1.497 0 2.712 1.187 2.712 2.65 0 1.464-1.215 2.65-2.712 2.65-1.499 0-2.713-1.186-2.713-2.65C5.664 1.187 6.878 0 8.377 0z" id="passenger-20px_svg__a"/></defs><use fill="#737373" xlink:href="#passenger-20px_svg__a" fill-rule="evenodd"/></svg>
